src/img/worflow-inspiration.svg

<svg width="38" height="38" viewBox="0 0 38 38" fill="none" xmlns="http://www.w3.org/2000/svg">
<path d="M19.0626 3.0003C13.4684 2.96048 9.04605 6.90609 8.00869 11.7985C7.24554 15.3977 8.18596 19.0112 10.5888 21.7125C11.7633 23.0329 12.4369 24.7985 12.4369 26.5615V28.4367C12.4369 29.6849 13.2544 30.7452 14.3818 31.1119C14.7627 33.3169 16.6879 34.9999 19.0001 34.9999C21.3123 34.9999 23.2375 33.3169 23.6184 31.1119C24.7458 30.7452 25.5633 29.6849 25.5633 28.4367V26.5615C25.5633 24.8201 26.2569 23.0301 27.4661 21.6505C29.2622 19.6014 30.2513 16.9725 30.2513 14.2477C30.2513 8.09402 25.3051 3.04474 19.0626 3.0003ZM19.0001 33.1247C17.7777 33.1247 16.7349 32.3347 16.3479 31.2433H21.6522C21.2653 32.3347 20.2225 33.1247 19.0001 33.1247ZM23.6881 28.4367C23.6881 28.9537 23.2675 29.3743 22.7505 29.3743H15.2497C14.7327 29.3743 14.3121 28.9537 14.3121 28.4367V27.4991H23.6881V28.4367ZM18.0625 17.9981H17.1249C15.5739 17.9981 14.3121 16.7363 14.3121 15.1853V14.2477H15.2497C16.8007 14.2477 18.0625 15.5096 18.0625 17.0605V17.9981ZM26.0559 20.4144C24.7656 21.8865 23.9471 23.7439 23.74 25.6239H19.9377V19.8733H20.8753C23.4603 19.8733 25.5633 17.7703 25.5633 15.1853V13.3101C25.5633 12.7923 25.1435 12.3725 24.6257 12.3725H22.7505C21.2186 12.3725 19.8561 13.1112 19.0001 14.251C18.1441 13.1112 16.7816 12.3725 15.2497 12.3725H13.3745C12.8567 12.3725 12.4369 12.7923 12.4369 13.3101V15.1853C12.4369 17.7703 14.5399 19.8733 17.1249 19.8733H18.0625V25.6239H14.2624C14.0614 23.7313 13.258 21.8917 11.9899 20.4661C9.9874 18.215 9.20488 15.1975 9.84313 12.1875C10.6942 8.1736 14.3528 4.83468 19.0626 4.876C24.2796 4.92181 28.3761 9.13732 28.3761 14.2477C28.3761 16.5175 27.5521 18.7075 26.0559 20.4144ZM19.9377 17.9981V17.0605C19.9377 15.5096 21.1995 14.2477 22.7505 14.2477H23.6881V15.1853C23.6881 16.7363 22.4263 17.9981 20.8753 17.9981H19.9377Z" fill="#203CA7"/>
<path d="M5.81109 14.2478H3.93589C3.41809 14.2478 2.99829 14.6676 2.99829 15.1854C2.99829 15.7033 3.41809 16.123 3.93589 16.123H5.81109C6.32889 16.123 6.74869 15.7032 6.74869 15.1854C6.74869 14.6676 6.32889 14.2478 5.81109 14.2478Z" fill="#203CA7"/>
<path d="M6.19923 9.5598L4.87328 8.23385C4.50718 7.86769 3.91355 7.86769 3.54733 8.23385C3.18116 8.60001 3.18116 9.19364 3.54733 9.5598L4.87328 10.8858C5.23938 11.2519 5.83301 11.252 6.19923 10.8858C6.5654 10.5196 6.5654 9.92597 6.19923 9.5598Z" fill="#203CA7"/>
<path d="M6.19943 19.4851C5.83327 19.1189 5.23964 19.1189 4.87348 19.4851L3.54753 20.8111C3.18142 21.1772 3.18142 21.7709 3.54753 22.137C3.91363 22.5032 4.50731 22.5032 4.87348 22.137L6.19943 20.8111C6.56553 20.4449 6.56553 19.8513 6.19943 19.4851Z" fill="#203CA7"/>
<path d="M34.064 14.2478H32.1888C31.671 14.2478 31.2512 14.6676 31.2512 15.1854C31.2512 15.7033 31.671 16.123 32.1888 16.123H34.064C34.5818 16.123 35.0016 15.7032 35.0016 15.1854C35.0016 14.6676 34.5818 14.2478 34.064 14.2478Z" fill="#203CA7"/>
<path d="M34.4524 8.23385C34.0863 7.86769 33.4926 7.86769 33.1265 8.23385L31.8005 9.5598C31.4343 9.92596 31.4343 10.5196 31.8005 10.8857C32.1667 11.2519 32.7603 11.252 33.1265 10.8857L34.4524 9.5598C34.8186 9.19364 34.8186 8.60001 34.4524 8.23385Z" fill="#203CA7"/>
<path d="M34.4524 20.811L33.1265 19.4851C32.7603 19.1189 32.1667 19.1189 31.8005 19.4851C31.4343 19.8512 31.4343 20.4449 31.8005 20.811L33.1265 22.137C33.4926 22.5031 34.0862 22.5032 34.4524 22.137C34.8186 21.7708 34.8186 21.1772 34.4524 20.811Z" fill="#203CA7"/>
</svg>

<svg width="38" height="38" fill="none" xmlns="http://www.w3.org/2000/svg"><path d="M19.063 3c-5.595-.04-10.017 3.906-11.054 8.8-.763 3.599.177 7.212 2.58 9.913a7.387 7.387 0 0 1 1.848 4.85v1.875c0 1.248.817 2.308 1.945 2.675A4.695 4.695 0 0 0 19 35a4.695 4.695 0 0 0 4.618-3.888 2.817 2.817 0 0 0 1.945-2.675V26.56c0-1.74.694-3.53 1.903-4.91A11.243 11.243 0 0 0 19.062 3ZM19 33.125a2.823 2.823 0 0 1-2.652-1.882h5.304A2.823 2.823 0 0 1 19 33.125Zm4.688-4.688c0 .517-.42.937-.938.937h-7.5a.939.939 0 0 1-.938-.937v-.938h9.376v.938Zm-5.625-10.439h-.938a2.816 2.816 0 0 1-2.813-2.813v-.937h.938a2.816 2.816 0 0 1 2.813 2.813v.937Zm7.993 2.416c-1.29 1.473-2.109 3.33-2.316 5.21h-3.802v-5.75h.937a4.693 4.693 0 0 0 4.688-4.689V13.31a.938.938 0 0 0-.937-.938H22.75a4.684 4.684 0 0 0-3.75 1.88 4.684 4.684 0 0 0-3.75-1.878h-1.876a.938.938 0 0 0-.937.937v1.875a4.693 4.693 0 0 0 4.688 4.688h.938v5.75h-3.8a9.31 9.31 0 0 0-2.273-5.157c-2.003-2.251-2.785-5.269-2.147-8.279.851-4.013 4.51-7.352 9.22-7.311a9.367 9.367 0 0 1 6.993 15.538Zm-6.118-2.416v-.938a2.816 2.816 0 0 1 2.813-2.812h.937v.937a2.816 2.816 0 0 1-2.813 2.813h-.937Zm-14.127-3.75H3.936a.938.938 0 0 0 0 1.875H5.81a.938.938 0 0 0 0-1.875ZM6.2 9.56 4.872 8.234A.938.938 0 1 0 3.547 9.56l1.326 1.326A.938.938 0 1 0 6.2 9.56Zm0 9.925a.937.937 0 0 0-1.327 0l-1.325 1.326a.938.938 0 0 0 1.325 1.326L6.2 20.811a.938.938 0 0 0 0-1.326Zm27.864-5.237h-1.875a.938.938 0 0 0 0 1.875h1.875a.938.938 0 0 0 0-1.875Zm.388-6.014a.938.938 0 0 0-1.325 0L31.8 9.56a.937.937 0 1 0 1.326 1.326l1.326-1.326a.937.937 0 0 0 0-1.326Zm0 12.577-1.325-1.326a.938.938 0 1 0-1.327 1.326l1.326 1.326a.938.938 0 1 0 1.326-1.326Z" fill="#203CA7"/></svg>
